images/50221701.svg

<?xml version="1.0" encoding="UTF-8"?>
<svg xmlns="http://www.w3.org/2000/svg" xmlns:xlink="http://www.w3.org/1999/xlink" width="300pt" height="300pt" viewBox="0 0 300 300" version="1.1">
<defs>
<g>
<symbol overflow="visible" id="glyph0-0">
<path style="stroke:none;" d="M 0.546875 1.9375 L 0.546875 -7.75 L 6.046875 -7.75 L 6.046875 1.9375 Z M 1.171875 1.328125 L 5.4375 1.328125 L 5.4375 -7.140625 L 1.171875 -7.140625 Z M 1.171875 1.328125 "/>
</symbol>
<symbol overflow="visible" id="glyph0-1">
<path style="stroke:none;" d="M 7.078125 -7.40625 L 7.078125 -6.25 C 6.710938 -6.59375 6.320312 -6.847656 5.90625 -7.015625 C 5.5 -7.179688 5.0625 -7.265625 4.59375 -7.265625 C 3.675781 -7.265625 2.972656 -6.984375 2.484375 -6.421875 C 2.003906 -5.867188 1.765625 -5.0625 1.765625 -4 C 1.765625 -2.945312 2.003906 -2.140625 2.484375 -1.578125 C 2.972656 -1.015625 3.675781 -0.734375 4.59375 -0.734375 C 5.0625 -0.734375 5.5 -0.816406 5.90625 -0.984375 C 6.320312 -1.148438 6.710938 -1.40625 7.078125 -1.75 L 7.078125 -0.625 C 6.703125 -0.363281 6.300781 -0.164062 5.875 -0.03125 C 5.457031 0.09375 5.007812 0.15625 4.53125 0.15625 C 3.320312 0.15625 2.367188 -0.210938 1.671875 -0.953125 C 0.972656 -1.703125 0.625 -2.71875 0.625 -4 C 0.625 -5.289062 0.972656 -6.304688 1.671875 -7.046875 C 2.367188 -7.796875 3.320312 -8.171875 4.53125 -8.171875 C 5.007812 -8.171875 5.460938 -8.101562 5.890625 -7.96875 C 6.316406 -7.84375 6.710938 -7.65625 7.078125 -7.40625 Z M 7.078125 -7.40625 "/>
</symbol>
<symbol overflow="visible" id="glyph0-2">
<path style="stroke:none;" d="M 1.03125 -8.359375 L 2.03125 -8.359375 L 2.03125 0 L 1.03125 0 Z M 1.03125 -8.359375 "/>
</symbol>
<symbol overflow="visible" id="glyph0-3">
<path style="stroke:none;" d="M 1.078125 -8.015625 L 2.546875 -8.015625 L 6.09375 -1.3125 L 6.09375 -8.015625 L 7.15625 -8.015625 L 7.15625 0 L 5.6875 0 L 2.125 -6.703125 L 2.125 0 L 1.078125 0 Z M 1.078125 -8.015625 "/>
</symbol>
<symbol overflow="visible" id="glyph0-4">
<path style="stroke:none;" d="M 1.078125 -8.015625 L 2.171875 -8.015625 L 2.171875 -4.734375 L 6.109375 -4.734375 L 6.109375 -8.015625 L 7.1875 -8.015625 L 7.1875 0 L 6.109375 0 L 6.109375 -3.8125 L 2.171875 -3.8125 L 2.171875 0 L 1.078125 0 Z M 1.078125 -8.015625 "/>
</symbol>
<symbol overflow="visible" id="glyph0-5">
<path style="stroke:none;" d="M 4.328125 -7.28125 C 3.546875 -7.28125 2.921875 -6.984375 2.453125 -6.390625 C 1.992188 -5.804688 1.765625 -5.007812 1.765625 -4 C 1.765625 -2.988281 1.992188 -2.1875 2.453125 -1.59375 C 2.921875 -1.007812 3.546875 -0.71875 4.328125 -0.71875 C 5.117188 -0.71875 5.742188 -1.007812 6.203125 -1.59375 C 6.660156 -2.1875 6.890625 -2.988281 6.890625 -4 C 6.890625 -5.007812 6.660156 -5.804688 6.203125 -6.390625 C 5.742188 -6.984375 5.117188 -7.28125 4.328125 -7.28125 Z M 4.328125 -8.171875 C 5.453125 -8.171875 6.351562 -7.789062 7.03125 -7.03125 C 7.707031 -6.28125 8.046875 -5.269531 8.046875 -4 C 8.046875 -2.738281 7.707031 -1.726562 7.03125 -0.96875 C 6.351562 -0.21875 5.453125 0.15625 4.328125 0.15625 C 3.203125 0.15625 2.300781 -0.21875 1.625 -0.96875 C 0.957031 -1.71875 0.625 -2.726562 0.625 -4 C 0.625 -5.269531 0.957031 -6.28125 1.625 -7.03125 C 2.300781 -7.789062 3.203125 -8.171875 4.328125 -8.171875 Z M 4.328125 -8.171875 "/>
</symbol>
</g>
</defs>
<g id="surface22173">
<rect x="0" y="0" width="300" height="300" style="fill:rgb(100%,100%,100%);fill-opacity:1;stroke:none;"/>
<path style="fill:none;stroke-width:1.2;stroke-linecap:butt;stroke-linejoin:miter;stroke:rgb(0%,80%,0%);stroke-opacity:1;stroke-miterlimit:10;" d="M 199.097656 136.980469 L 209.375 145.222656 "/>
<path style="fill:none;stroke-width:1.2;stroke-linecap:butt;stroke-linejoin:miter;stroke:rgb(0%,0%,0%);stroke-opacity:1;stroke-miterlimit:10;" d="M 209.375 145.222656 L 219.648438 153.464844 "/>
<path style=" stroke:none;fill-rule:nonzero;fill:rgb(100%,100%,100%);fill-opacity:1;" d="M 188.097656 130.480469 L 199.097656 130.480469 L 199.097656 143.480469 L 188.097656 143.480469 Z M 188.097656 130.480469 "/>
<g style="fill:rgb(0%,80%,0%);fill-opacity:1;">
  <use xlink:href="#glyph0-1" x="188.097656" y="140.381836"/>
  <use xlink:href="#glyph0-2" x="195.548828" y="140.381836"/>
</g>
<path style="fill:none;stroke-width:1.2;stroke-linecap:butt;stroke-linejoin:miter;stroke:rgb(0%,0%,0%);stroke-opacity:1;stroke-miterlimit:10;" d="M 219.648438 153.464844 L 244.199219 143.90625 "/>
<path style="fill:none;stroke-width:1.2;stroke-linecap:butt;stroke-linejoin:miter;stroke:rgb(0%,0%,0%);stroke-opacity:1;stroke-miterlimit:10;" d="M 224.351562 158.285156 L 243.992188 150.640625 "/>
<path style="fill:none;stroke-width:1.2;stroke-linecap:butt;stroke-linejoin:miter;stroke:rgb(0%,0%,0%);stroke-opacity:1;stroke-miterlimit:10;" d="M 215.652344 179.5 L 219.648438 153.464844 "/>
<path style="fill:none;stroke-width:1.2;stroke-linecap:butt;stroke-linejoin:miter;stroke:rgb(0%,0%,0%);stroke-opacity:1;stroke-miterlimit:10;" d="M 244.199219 143.90625 L 264.75 160.390625 "/>
<path style="fill:none;stroke-width:1.2;stroke-linecap:butt;stroke-linejoin:miter;stroke:rgb(0%,0%,0%);stroke-opacity:1;stroke-miterlimit:10;" d="M 264.75 160.390625 L 260.75 186.429688 "/>
<path style="fill:none;stroke-width:1.2;stroke-linecap:butt;stroke-linejoin:miter;stroke:rgb(0%,0%,0%);stroke-opacity:1;stroke-miterlimit:10;" d="M 258.222656 162.050781 L 255.023438 182.882812 "/>
<path style="fill:none;stroke-width:1.2;stroke-linecap:butt;stroke-linejoin:miter;stroke:rgb(0%,0%,0%);stroke-opacity:1;stroke-miterlimit:10;" d="M 260.75 186.429688 L 236.203125 195.984375 "/>
<path style="fill:none;stroke-width:1.2;stroke-linecap:butt;stroke-linejoin:miter;stroke:rgb(0%,0%,0%);stroke-opacity:1;stroke-miterlimit:10;" d="M 236.203125 195.984375 L 234.203125 209.003906 "/>
<path style="fill:none;stroke-width:1.2;stroke-linecap:butt;stroke-linejoin:miter;stroke:rgb(0%,80%,0%);stroke-opacity:1;stroke-miterlimit:10;" d="M 234.203125 209.003906 L 232.203125 222.023438 "/>
<path style="fill:none;stroke-width:1.2;stroke-linecap:butt;stroke-linejoin:miter;stroke:rgb(0%,0%,0%);stroke-opacity:1;stroke-miterlimit:10;" d="M 236.203125 195.984375 L 215.652344 179.5 "/>
<path style="fill:none;stroke-width:1.2;stroke-linecap:butt;stroke-linejoin:miter;stroke:rgb(0%,0%,0%);stroke-opacity:1;stroke-miterlimit:10;" d="M 238.023438 189.5 L 221.585938 176.316406 "/>
<path style=" stroke:none;fill-rule:nonzero;fill:rgb(100%,100%,100%);fill-opacity:1;" d="M 227.203125 215.523438 L 238.203125 215.523438 L 238.203125 228.523438 L 227.203125 228.523438 Z M 227.203125 215.523438 "/>
<g style="fill:rgb(0%,80%,0%);fill-opacity:1;">
  <use xlink:href="#glyph0-1" x="227.203125" y="225.424805"/>
  <use xlink:href="#glyph0-2" x="234.654297" y="225.424805"/>
</g>
<path style="fill:none;stroke-width:1.2;stroke-linecap:butt;stroke-linejoin:miter;stroke:rgb(0%,0%,0%);stroke-opacity:1;stroke-miterlimit:10;" d="M 215.652344 179.5 L 203.375 184.28125 "/>
<path style="fill:none;stroke-width:1.2;stroke-linecap:butt;stroke-linejoin:miter;stroke:rgb(0%,0%,100%);stroke-opacity:1;stroke-miterlimit:10;" d="M 203.375 184.28125 L 191.101562 189.058594 "/>
<path style="fill:none;stroke-width:1.2;stroke-linecap:butt;stroke-linejoin:miter;stroke:rgb(0%,0%,100%);stroke-opacity:1;stroke-miterlimit:10;" d="M 191.101562 189.058594 L 180.824219 180.816406 "/>
<path style="fill:none;stroke-width:1.2;stroke-linecap:butt;stroke-linejoin:miter;stroke:rgb(0%,0%,0%);stroke-opacity:1;stroke-miterlimit:10;" d="M 180.824219 180.816406 L 170.550781 172.574219 "/>
<path style="fill:none;stroke-width:1.2;stroke-linecap:butt;stroke-linejoin:miter;stroke:rgb(0%,0%,0%);stroke-opacity:1;stroke-miterlimit:10;" d="M 187.101562 215.097656 L 189.101562 202.078125 "/>
<path style="fill:none;stroke-width:1.2;stroke-linecap:butt;stroke-linejoin:miter;stroke:rgb(0%,0%,100%);stroke-opacity:1;stroke-miterlimit:10;" d="M 189.101562 202.078125 L 191.101562 189.058594 "/>
<path style=" stroke:none;fill-rule:nonzero;fill:rgb(100%,100%,100%);fill-opacity:1;" d="M 187.101562 182.558594 L 195.101562 182.558594 L 195.101562 195.558594 L 187.101562 195.558594 Z M 187.101562 182.558594 "/>
<g style="fill:rgb(0%,0%,100%);fill-opacity:1;">
  <use xlink:href="#glyph0-3" x="187.101562" y="192.459961"/>
</g>
<path style="fill:none;stroke-width:1.2;stroke-linecap:butt;stroke-linejoin:miter;stroke:rgb(0%,0%,0%);stroke-opacity:1;stroke-miterlimit:10;" d="M 170.550781 172.574219 L 146 182.132812 "/>
<path style="fill:none;stroke-width:1.2;stroke-linecap:butt;stroke-linejoin:miter;stroke:rgb(0%,0%,0%);stroke-opacity:1;stroke-miterlimit:10;" d="M 165.847656 167.753906 L 146.207031 175.398438 "/>
<path style="fill:none;stroke-width:1.2;stroke-linecap:butt;stroke-linejoin:miter;stroke:rgb(0%,0%,0%);stroke-opacity:1;stroke-miterlimit:10;" d="M 174.550781 146.535156 L 170.550781 172.574219 "/>
<path style="fill:none;stroke-width:1.2;stroke-linecap:butt;stroke-linejoin:miter;stroke:rgb(0%,0%,0%);stroke-opacity:1;stroke-miterlimit:10;" d="M 146 182.132812 L 142.003906 208.171875 "/>
<path style="fill:none;stroke-width:1.2;stroke-linecap:butt;stroke-linejoin:miter;stroke:rgb(0%,0%,0%);stroke-opacity:1;stroke-miterlimit:10;" d="M 146 182.132812 L 125.449219 165.648438 "/>
<path style="fill:none;stroke-width:1.2;stroke-linecap:butt;stroke-linejoin:miter;stroke:rgb(0%,0%,0%);stroke-opacity:1;stroke-miterlimit:10;" d="M 142.003906 208.171875 L 152.277344 216.410156 "/>
<path style="fill:none;stroke-width:1.2;stroke-linecap:butt;stroke-linejoin:miter;stroke:rgb(0%,0%,100%);stroke-opacity:1;stroke-miterlimit:10;" d="M 152.277344 216.410156 L 162.554688 224.652344 "/>
<path style="fill:none;stroke-width:1.2;stroke-linecap:butt;stroke-linejoin:miter;stroke:rgb(0%,0%,100%);stroke-opacity:1;stroke-miterlimit:10;" d="M 162.554688 224.652344 L 174.828125 219.875 "/>
<path style="fill:none;stroke-width:1.2;stroke-linecap:butt;stroke-linejoin:miter;stroke:rgb(0%,0%,0%);stroke-opacity:1;stroke-miterlimit:10;" d="M 174.828125 219.875 L 187.101562 215.097656 "/>
<path style=" stroke:none;fill-rule:nonzero;fill:rgb(100%,100%,100%);fill-opacity:1;" d="M 154.554688 218.152344 L 171.554688 218.152344 L 171.554688 231.152344 L 154.554688 231.152344 Z M 154.554688 218.152344 "/>
<g style="fill:rgb(0%,0%,100%);fill-opacity:1;">
  <use xlink:href="#glyph0-3" x="154.554688" y="228.053711"/>
  <use xlink:href="#glyph0-4" x="162.538086" y="228.053711"/>
</g>
<path style="fill:none;stroke-width:1.2;stroke-linecap:butt;stroke-linejoin:miter;stroke:rgb(0%,0%,0%);stroke-opacity:1;stroke-miterlimit:10;" d="M 185.164062 217.515625 L 195.4375 225.753906 "/>
<path style="fill:none;stroke-width:1.2;stroke-linecap:butt;stroke-linejoin:miter;stroke:rgb(100%,0%,0%);stroke-opacity:1;stroke-miterlimit:10;" d="M 195.4375 225.753906 L 205.714844 233.996094 "/>
<path style="fill:none;stroke-width:1.2;stroke-linecap:butt;stroke-linejoin:miter;stroke:rgb(0%,0%,0%);stroke-opacity:1;stroke-miterlimit:10;" d="M 189.042969 212.679688 L 199.316406 220.921875 "/>
<path style="fill:none;stroke-width:1.2;stroke-linecap:butt;stroke-linejoin:miter;stroke:rgb(100%,0%,0%);stroke-opacity:1;stroke-miterlimit:10;" d="M 199.316406 220.921875 L 209.59375 229.160156 "/>
<path style=" stroke:none;fill-rule:nonzero;fill:rgb(100%,100%,100%);fill-opacity:1;" d="M 203.652344 225.078125 L 212.652344 225.078125 L 212.652344 238.078125 L 203.652344 238.078125 Z M 203.652344 225.078125 "/>
<g style="fill:rgb(100%,0%,0%);fill-opacity:1;">
  <use xlink:href="#glyph0-5" x="203.652344" y="234.979492"/>
</g>
<path style="fill:none;stroke-width:1.2;stroke-linecap:butt;stroke-linejoin:miter;stroke:rgb(0%,0%,0%);stroke-opacity:1;stroke-miterlimit:10;" d="M 125.449219 165.648438 L 129.449219 139.609375 "/>
<path style="fill:none;stroke-width:1.2;stroke-linecap:butt;stroke-linejoin:miter;stroke:rgb(0%,0%,0%);stroke-opacity:1;stroke-miterlimit:10;" d="M 131.976562 163.984375 L 135.175781 143.15625 "/>
<path style="fill:none;stroke-width:1.2;stroke-linecap:butt;stroke-linejoin:miter;stroke:rgb(0%,0%,0%);stroke-opacity:1;stroke-miterlimit:10;" d="M 125.449219 165.648438 L 100.902344 175.207031 "/>
<path style="fill:none;stroke-width:1.2;stroke-linecap:butt;stroke-linejoin:miter;stroke:rgb(0%,0%,0%);stroke-opacity:1;stroke-miterlimit:10;" d="M 129.449219 139.609375 L 154 130.054688 "/>
<path style="fill:none;stroke-width:1.2;stroke-linecap:butt;stroke-linejoin:miter;stroke:rgb(0%,0%,0%);stroke-opacity:1;stroke-miterlimit:10;" d="M 154 130.054688 L 174.550781 146.535156 "/>
<path style="fill:none;stroke-width:1.2;stroke-linecap:butt;stroke-linejoin:miter;stroke:rgb(0%,0%,0%);stroke-opacity:1;stroke-miterlimit:10;" d="M 152.175781 136.539062 L 168.617188 149.722656 "/>
<path style="fill:none;stroke-width:1.2;stroke-linecap:butt;stroke-linejoin:miter;stroke:rgb(0%,0%,0%);stroke-opacity:1;stroke-miterlimit:10;" d="M 154 130.054688 L 157.996094 104.015625 "/>
<path style="fill:none;stroke-width:1.2;stroke-linecap:butt;stroke-linejoin:miter;stroke:rgb(0%,0%,0%);stroke-opacity:1;stroke-miterlimit:10;" d="M 157.996094 104.015625 L 170.273438 99.238281 "/>
<path style="fill:none;stroke-width:1.2;stroke-linecap:butt;stroke-linejoin:miter;stroke:rgb(100%,0%,0%);stroke-opacity:1;stroke-miterlimit:10;" d="M 170.273438 99.238281 L 182.546875 94.460938 "/>
<path style="fill:none;stroke-width:1.2;stroke-linecap:butt;stroke-linejoin:miter;stroke:rgb(0%,0%,0%);stroke-opacity:1;stroke-miterlimit:10;" d="M 159.9375 101.597656 L 149.660156 93.355469 "/>
<path style="fill:none;stroke-width:1.2;stroke-linecap:butt;stroke-linejoin:miter;stroke:rgb(100%,0%,0%);stroke-opacity:1;stroke-miterlimit:10;" d="M 149.660156 93.355469 L 139.386719 85.117188 "/>
<path style="fill:none;stroke-width:1.2;stroke-linecap:butt;stroke-linejoin:miter;stroke:rgb(0%,0%,0%);stroke-opacity:1;stroke-miterlimit:10;" d="M 156.058594 106.433594 L 145.785156 98.191406 "/>
<path style="fill:none;stroke-width:1.2;stroke-linecap:butt;stroke-linejoin:miter;stroke:rgb(100%,0%,0%);stroke-opacity:1;stroke-miterlimit:10;" d="M 145.785156 98.191406 L 135.507812 89.949219 "/>
<path style="fill:none;stroke-width:1.2;stroke-linecap:butt;stroke-linejoin:miter;stroke:rgb(100%,0%,0%);stroke-opacity:1;stroke-miterlimit:10;" d="M 182.546875 94.460938 L 184.546875 81.441406 "/>
<path style="fill:none;stroke-width:1.2;stroke-linecap:butt;stroke-linejoin:miter;stroke:rgb(0%,0%,0%);stroke-opacity:1;stroke-miterlimit:10;" d="M 184.546875 81.441406 L 186.546875 68.421875 "/>
<path style=" stroke:none;fill-rule:nonzero;fill:rgb(100%,100%,100%);fill-opacity:1;" d="M 178.546875 87.960938 L 187.546875 87.960938 L 187.546875 100.960938 L 178.546875 100.960938 Z M 178.546875 87.960938 "/>
<g style="fill:rgb(100%,0%,0%);fill-opacity:1;">
  <use xlink:href="#glyph0-5" x="178.546875" y="97.862305"/>
</g>
<path style=" stroke:none;fill-rule:nonzero;fill:rgb(100%,100%,100%);fill-opacity:1;" d="M 128.445312 81.035156 L 137.445312 81.035156 L 137.445312 94.035156 L 128.445312 94.035156 Z M 128.445312 81.035156 "/>
<g style="fill:rgb(100%,0%,0%);fill-opacity:1;">
  <use xlink:href="#glyph0-5" x="128.445312" y="90.936523"/>
</g>
<path style="fill:none;stroke-width:1.2;stroke-linecap:butt;stroke-linejoin:miter;stroke:rgb(0%,0%,0%);stroke-opacity:1;stroke-miterlimit:10;" d="M 100.902344 175.207031 L 80.351562 158.722656 "/>
<path style="fill:none;stroke-width:1.2;stroke-linecap:butt;stroke-linejoin:miter;stroke:rgb(0%,0%,0%);stroke-opacity:1;stroke-miterlimit:10;" d="M 94.96875 178.394531 L 78.527344 165.207031 "/>
<path style="fill:none;stroke-width:1.2;stroke-linecap:butt;stroke-linejoin:miter;stroke:rgb(0%,0%,0%);stroke-opacity:1;stroke-miterlimit:10;" d="M 96.902344 201.242188 L 100.902344 175.207031 "/>
<path style="fill:none;stroke-width:1.2;stroke-linecap:butt;stroke-linejoin:miter;stroke:rgb(0%,0%,0%);stroke-opacity:1;stroke-miterlimit:10;" d="M 80.351562 158.722656 L 55.800781 168.277344 "/>
<path style="fill:none;stroke-width:1.2;stroke-linecap:butt;stroke-linejoin:miter;stroke:rgb(0%,0%,0%);stroke-opacity:1;stroke-miterlimit:10;" d="M 55.800781 168.277344 L 45.523438 160.039062 "/>
<path style="fill:none;stroke-width:1.2;stroke-linecap:butt;stroke-linejoin:miter;stroke:rgb(0%,80%,0%);stroke-opacity:1;stroke-miterlimit:10;" d="M 45.523438 160.039062 L 35.25 151.796875 "/>
<path style="fill:none;stroke-width:1.2;stroke-linecap:butt;stroke-linejoin:miter;stroke:rgb(0%,0%,0%);stroke-opacity:1;stroke-miterlimit:10;" d="M 55.800781 168.277344 L 51.800781 194.316406 "/>
<path style="fill:none;stroke-width:1.2;stroke-linecap:butt;stroke-linejoin:miter;stroke:rgb(0%,0%,0%);stroke-opacity:1;stroke-miterlimit:10;" d="M 61.527344 171.824219 L 58.328125 192.65625 "/>
<path style=" stroke:none;fill-rule:nonzero;fill:rgb(100%,100%,100%);fill-opacity:1;" d="M 24.25 145.296875 L 35.25 145.296875 L 35.25 158.296875 L 24.25 158.296875 Z M 24.25 145.296875 "/>
<g style="fill:rgb(0%,80%,0%);fill-opacity:1;">
  <use xlink:href="#glyph0-1" x="24.25" y="155.198242"/>
  <use xlink:href="#glyph0-2" x="31.701172" y="155.198242"/>
</g>
<path style="fill:none;stroke-width:1.2;stroke-linecap:butt;stroke-linejoin:miter;stroke:rgb(0%,0%,0%);stroke-opacity:1;stroke-miterlimit:10;" d="M 51.800781 194.316406 L 72.351562 210.800781 "/>
<path style="fill:none;stroke-width:1.2;stroke-linecap:butt;stroke-linejoin:miter;stroke:rgb(0%,0%,0%);stroke-opacity:1;stroke-miterlimit:10;" d="M 72.351562 210.800781 L 96.902344 201.242188 "/>
<path style="fill:none;stroke-width:1.2;stroke-linecap:butt;stroke-linejoin:miter;stroke:rgb(0%,0%,0%);stroke-opacity:1;stroke-miterlimit:10;" d="M 72.558594 204.066406 L 92.199219 196.421875 "/>
</g>
</svg>

<svg xmlns="http://www.w3.org/2000/svg" xmlns:xlink="http://www.w3.org/1999/xlink" width="300pt" height="300pt" viewBox="0 0 300 300"><defs><symbol overflow="visible"><path d="M.547 1.938V-7.75h5.5v9.688zm.625-.61h4.266v-8.47H1.171zm0 0"/></symbol><symbol overflow="visible" id="a"><path d="M7.078-7.406v1.156c-.367-.344-.758-.598-1.172-.766-.406-.164-.843-.25-1.312-.25-.918 0-1.62.282-2.11.844-.48.555-.718 1.36-.718 2.422 0 1.055.238 1.86.718 2.422.49.562 1.192.844 2.11.844.468 0 .906-.082 1.312-.25.414-.164.805-.422 1.172-.766v1.125c-.375.262-.777.46-1.203.594-.418.124-.867.186-1.344.186-1.21 0-2.163-.367-2.858-1.11C.972-1.703.625-2.718.625-4c0-1.29.348-2.305 1.047-3.047.695-.75 1.648-1.125 2.86-1.125.476 0 .93.07 1.36.203.424.126.82.314 1.186.564zm0 0"/></symbol><symbol overflow="visible" id="b"><path d="M1.03-8.36h1V0h-1zm0 0"/></symbol><symbol overflow="visible" id="c"><path d="M1.078-8.016h1.47l3.546 6.704v-6.704h1.062V0H5.688L2.124-6.703V0H1.078zm0 0"/></symbol><symbol overflow="visible" id="d"><path d="M1.078-8.016h1.094v3.282H6.11v-3.282h1.077V0H6.11v-3.813H2.17V0H1.078zm0 0"/></symbol><symbol overflow="visible" id="e"><path d="M4.328-7.28c-.78 0-1.406.296-1.875.89-.46.585-.687 1.382-.687 2.39 0 1.012.226 1.813.687 2.406.47.586 1.094.875 1.875.875.79 0 1.414-.288 1.875-.874.457-.593.688-1.394.688-2.406 0-1.008-.23-1.805-.687-2.39-.46-.594-1.086-.89-1.875-.89zm0-.892c1.125 0 2.024.383 2.703 1.14C7.708-6.28 8.048-5.27 8.048-4c0 1.262-.34 2.273-1.016 3.03C6.353-.22 5.454.157 4.33.157S2.3-.22 1.625-.97c-.668-.75-1-1.757-1-3.03 0-1.27.332-2.28 1-3.03.676-.76 1.578-1.142 2.703-1.142zm0 0"/></symbol></defs><g><path fill="#fff" d="M0 0h300v300H0z"/><path d="M199.098 136.98l10.277 8.243" stroke-width="1.2" stroke="#0c0" stroke-miterlimit="10" fill="none"/><path d="M209.375 145.223l10.273 8.242" stroke-width="1.2" stroke="#000" stroke-miterlimit="10" fill="none"/><path d="M188.098 130.48h11v13h-11zm0 0" fill="#fff"/><g fill="#0c0"><use xlink:href="#a" x="188.098" y="140.382"/><use xlink:href="#b" x="195.549" y="140.382"/></g><path d="M219.648 153.465l24.55-9.56M224.352 158.285l19.64-7.644M215.652 179.5l3.996-26.035M244.2 143.906l20.55 16.485M264.75 160.39l-4 26.04M258.223 162.05l-3.2 20.833M260.75 186.43l-24.547 9.554M236.203 195.984l-2 13.02" stroke-width="1.2" stroke="#000" stroke-miterlimit="10" fill="none"/><path d="M234.203 209.004l-2 13.02" stroke-width="1.2" stroke="#0c0" stroke-miterlimit="10" fill="none"/><path d="M236.203 195.984l-20.55-16.484M238.023 189.5l-16.437-13.184" stroke-width="1.2" stroke="#000" stroke-miterlimit="10" fill="none"/><path d="M227.203 215.523h11v13h-11zm0 0" fill="#fff"/><g fill="#0c0"><use xlink:href="#a" x="227.203" y="225.425"/><use xlink:href="#b" x="234.654" y="225.425"/></g><path d="M215.652 179.5l-12.277 4.78" stroke-width="1.2" stroke="#000" stroke-miterlimit="10" fill="none"/><path d="M203.375 184.28l-12.273 4.78M191.102 189.06l-10.278-8.244" stroke-width="1.2" stroke="#00f" stroke-miterlimit="10" fill="none"/><path d="M180.824 180.816l-10.273-8.242M187.102 215.098l2-13.02" stroke-width="1.2" stroke="#000" stroke-miterlimit="10" fill="none"/><path d="M189.102 202.078l2-13.02" stroke-width="1.2" stroke="#00f" stroke-miterlimit="10" fill="none"/><path d="M187.102 182.56h8v13h-8zm0 0" fill="#fff"/><use xlink:href="#c" x="187.102" y="192.46" fill="#00f"/><path d="M170.55 172.574l-24.55 9.56M165.848 167.754l-19.64 7.644M174.55 146.535l-4 26.04M146 182.133l-3.996 26.04M146 182.133l-20.55-16.485M142.004 208.172l10.273 8.238" stroke-width="1.2" stroke="#000" stroke-miterlimit="10" fill="none"/><path d="M152.277 216.41l10.278 8.242M162.555 224.652l12.273-4.777" stroke-width="1.2" stroke="#00f" stroke-miterlimit="10" fill="none"/><path d="M174.828 219.875l12.274-4.777" stroke-width="1.2" stroke="#000" stroke-miterlimit="10" fill="none"/><path d="M154.555 218.152h17v13h-17zm0 0" fill="#fff"/><g fill="#00f"><use xlink:href="#c" x="154.555" y="228.054"/><use xlink:href="#d" x="162.538" y="228.054"/></g><path d="M185.164 217.516l10.274 8.238" stroke-width="1.2" stroke="#000" stroke-miterlimit="10" fill="none"/><path d="M195.438 225.754l10.277 8.242" stroke-width="1.2" stroke="#f00" stroke-miterlimit="10" fill="none"/><path d="M189.043 212.68l10.273 8.242" stroke-width="1.2" stroke="#000" stroke-miterlimit="10" fill="none"/><path d="M199.316 220.922l10.278 8.238" stroke-width="1.2" stroke="#f00" stroke-miterlimit="10" fill="none"/><path d="M203.652 225.078h9v13h-9zm0 0" fill="#fff"/><use xlink:href="#e" x="203.652" y="234.979" fill="#f00"/><path d="M125.45 165.648l4-26.04M131.977 163.984l3.2-20.828M125.45 165.648l-24.548 9.56M129.45 139.61l24.55-9.555M154 130.055l20.55 16.48M152.176 136.54l16.44 13.183M154 130.055l3.996-26.04M157.996 104.016l12.277-4.778" stroke-width="1.2" stroke="#000" stroke-miterlimit="10" fill="none"/><path d="M170.273 99.238l12.274-4.777" stroke-width="1.2" stroke="#f00" stroke-miterlimit="10" fill="none"/><path d="M159.938 101.598l-10.278-8.243" stroke-width="1.2" stroke="#000" stroke-miterlimit="10" fill="none"/><path d="M149.66 93.355l-10.273-8.238" stroke-width="1.2" stroke="#f00" stroke-miterlimit="10" fill="none"/><path d="M156.06 106.434l-10.275-8.243" stroke-width="1.2" stroke="#000" stroke-miterlimit="10" fill="none"/><path d="M145.785 98.19l-10.277-8.24M182.547 94.46l2-13.02" stroke-width="1.2" stroke="#f00" stroke-miterlimit="10" fill="none"/><path d="M184.547 81.44l2-13.018" stroke-width="1.2" stroke="#000" stroke-miterlimit="10" fill="none"/><path d="M178.547 87.96h9v13h-9zm0 0" fill="#fff"/><use xlink:href="#e" x="178.547" y="97.862" fill="#f00"/><path d="M128.445 81.035h9v13h-9zm0 0" fill="#fff"/><use xlink:href="#e" x="128.445" y="90.937" fill="#f00"/><path d="M100.902 175.207l-20.55-16.484M94.97 178.395l-16.443-13.188M96.902 201.242l4-26.035M80.352 158.723l-24.55 9.554M55.8 168.277l-10.277-8.238" stroke-width="1.2" stroke="#000" stroke-miterlimit="10" fill="none"/><path d="M45.523 160.04l-10.273-8.243" stroke-width="1.2" stroke="#0c0" stroke-miterlimit="10" fill="none"/><path d="M55.8 168.277l-4 26.04M61.527 171.824l-3.2 20.832" stroke-width="1.2" stroke="#000" stroke-miterlimit="10" fill="none"/><path d="M24.25 145.297h11v13h-11zm0 0" fill="#fff"/><g fill="#0c0"><use xlink:href="#a" x="24.25" y="155.198"/><use xlink:href="#b" x="31.701" y="155.198"/></g><path d="M51.8 194.316L72.353 210.8M72.352 210.8l24.55-9.558M72.56 204.066l19.64-7.644" stroke-width="1.2" stroke="#000" stroke-miterlimit="10" fill="none"/></g></svg>
